; HEADER_BLOCK_START
; generated by OrcaSlicer 2.0.0-beta on 2024-05-29 at 18:48:01
; total layer number: 372
; filament_density: 1.24
; filament_diameter: 1.75
; max_z_height: 27.50
; HEADER_BLOCK_END

; THUMBNAIL_BLOCK_START

;
; THUMBNAIL_BLOCK_END

; external perimeters extrusion width = 0.42mm
; perimeters extrusion width = 0.45mm
; infill extrusion width = 0.45mm
; solid infill extrusion width = 0.42mm
; top infill extrusion width = 0.42mm
; support material extrusion width = 0.42mm
; first layer extrusion width = 0.50mm

; external perimeters extrusion width = 0.42mm
; perimeters extrusion width = 0.45mm
; infill extrusion width = 0.45mm
; solid infill extrusion width = 0.42mm
; top infill extrusion width = 0.42mm
; support material extrusion width = 0.42mm
; first layer extrusion width = 0.50mm

; external perimeters extrusion width = 0.42mm
; perimeters extrusion width = 0.45mm
; infill extrusion width = 0.45mm
; solid infill extrusion width = 0.42mm
; top infill extrusion width = 0.42mm
; support material extrusion width = 0.42mm
; first layer extrusion width = 0.50mm

; EXECUTABLE_BLOCK_START
M73 P0 R44
M106 S0
M106 P2 S0
;TYPE:Custom
M190 S55
M104 S220
G90
M83
G1 Z5 F6000
G1 E-1.5 F800
G1 X110 Y-110 F6000
G1 E2 F800
G1 Y-110 X55 Z0.25 F4800
G1 X-55 E8 F2400
G1 Y-109.6 F2400
G1 X55 E5 F2400
G1 Y-110 X55 Z0.45 F4800
G1 X-55 E8 F2400
G1 Y-109.6 F2400
G1 X55 E5 F2400
G92 E0
G90
G21
M83 ; use relative distances for extrusion
; filament start gcode
;right_extruder_material: PLA
SET_PRESSURE_ADVANCE ADVANCE=0.025; Override pressure advance value
M106 S0
M106 P2 S0
;LAYER_CHANGE
;Z:0.1
;HEIGHT:0.1
;BEFORE_LAYER_CHANGE
;0.1
M73 P0 R43
G1 E-.8 F2100
;AFTER_LAYER_CHANGE
;0.1
;_SET_FAN_SPEED_CHANGING_LAYER
SET_VELOCITY_LIMIT ACCEL=500
G1 X9.681 Y-12.035 F30000
G1 Z.4
G1 Z.1
G1 E.8 F2100
;TYPE:Skirt
;WIDTH:0.5
G1 F3000
G1 X17.078 Y-6.084 E.18511
G1 X20.341 Y-2.846 E.08963
G1 X21.159 Y-1.289 E.03429
G1 X23.091 Y9.381 E.21142
G1 X23.05 Y10.606 E.0239
G1 X21.121 Y18.405 E.15663
G1 X20.341 Y19.786 E.03092
G1 X17.316 Y22.811 E.08342
G1 X15.996 Y23.575 E.02973
G1 X15.225 Y23.677 E.01516
G1 X11.747 Y23.677 E.06781
G1 X-16.528 Y23.404 E.55132
G1 X-18.591 Y22.538 E.04361
G1 X-20.591 Y20.538 E.05515
G1 X-21.355 Y19.218 E.02973
G1 X-21.457 Y18.447 E.01516
G1 X-21.435 Y7.091 E.22142
G1 X-18.265 Y-19.043 E.51329
G1 X-17.705 Y-20.447 E.02947
G1 X-15.149 Y-23.898 E.08374
G1 X-14.304 Y-24.788 E.02393
G1 X-13.448 Y-25.413 E.02066
G1 X-12.304 Y-25.949 E.02462
G1 X-11.195 Y-26.23 E.0223
G1 X-10.034 Y-26.299 E.02268
G1 X-9.118 Y-26.198 E.01799
G1 X-8.156 Y-25.94 E.01941
G1 X-7.124 Y-25.462 E.02218
G1 X-6.323 Y-24.909 E.01898
G1 X9.65 Y-12.06 E.39968
G1 X9.35 Y-11.687 F30000
G1 F3000
G1 X16.778 Y-5.711 E.18589
G1 X20.003 Y-2.507 E.08862
G1 X20.688 Y-1.202 E.02874
G1 X22.62 Y9.464 E.21136
G1 X22.585 Y10.491 E.02003
G1 X20.656 Y18.29 E.15663
G1 X20.003 Y19.447 E.02592
G1 X16.978 Y22.473 E.08342
G1 X15.225 Y23.198 E.03699
G1 X-16.524 Y22.926 E.61904
G1 X-18.252 Y22.2 E.03656
G1 X-20.252 Y20.2 E.05515
G1 X-20.978 Y18.447 E.03699
G1 X-20.96 Y7.149 E.22029
G1 X-17.79 Y-18.986 E.51329
G1 X-17.321 Y-20.162 E.0247
G1 X-14.764 Y-23.614 E.08374
G1 X-13.986 Y-24.431 E.022
G1 X-13.214 Y-24.995 E.01864
G1 X-12.136 Y-25.501 E.02322
G1 X-11.109 Y-25.76 E.02066
G1 X-10.065 Y-25.822 E.02039
G1 X-9.241 Y-25.735 E.01615
G1 X-8.326 Y-25.493 E.01845
G1 X-7.354 Y-25.042 E.0209
G1 X-6.691 Y-24.588 E.01566
G1 X9.318 Y-11.712 E.40058
G1 E-.8 F2100
;WIPE_START
G1 F3000
G1 X10.877 Y-10.458
;WIPE_END
G1 X3.285 Y-9.667 Z.5 F30000
G1 X-10.056 Y-8.278 Z.5
G1 Z.1
G1 E.8 F2100
;TYPE:Support
G1 F3000
G3 X-9.281 Y-7.37 I-.213 J.967 E.02498
G1 X-8.977 Y-7.123 E.00764
G1 X-7 Y-7.199 E.03857
G3 X-13.487 Y-7.199 I-3.243 J-.147 E.19311
G1 X-11.51 Y-7.123 E.03857
G3 X-10.554 Y-8.244 I6.214 J4.329 E.02878
G3 X-10.127 Y-8.287 I.349 J1.321 E.00839
G1 X-10.28 Y-7.863 F30000
G1 F3000
G3 X-9.672 Y-7.133 I.003 J.616 E.02116
G1 X-9.13 Y-6.692 E.01362
G1 X-7.503 Y-6.692 E.03173
G1 X-7.559 Y-6.502 E.00386
G3 X-12.984 Y-6.692 I-2.686 J-.848 E.1428
G1 X-11.356 Y-6.692 E.03173
G2 X-10.596 Y-7.726 I-.498 J-1.163 E.02624
G3 X-10.28 Y-7.863 I.36 J.394 E.00684
G1 X-10.243 Y-6.914 F30000
G1 F3000
G1 X-9.32 Y-6.16 E.02324
G1 X-8.203 Y-6.16 E.02178
G3 X-12.279 Y-6.16 I-2.038 J-1.344 E.09406
G1 X-11.167 Y-6.16 E.02168
G1 X-10.243 Y-6.914 E.02324
G1 X-10.243 Y-6.228 F30000
G1 F3000
G1 X-9.526 Y-5.642 E.01805
G3 X-10.961 Y-5.642 I-.718 J-5.673 E.02805
G1 X-10.243 Y-6.228 E.01805
G1 E-.8 F2100
;WIPE_START
G1 F3000
G1 X-10.961 Y-5.642
G1 X-9.887 Y-5.642
;WIPE_END
G1 X-9.864 Y-13.275 Z.5 F30000
G1 X-9.834 Y-23.323 Z.5
G1 Z.1
G1 E.8 F2100
G1 F3000
G3 X-7.004 Y-20.248 I-.426 J3.231 E.08844
G1 X-8.977 Y-20.323 E.03849
G3 X-9.921 Y-19.206 I-6.56 J-4.584 E.02855
G3 X-11.206 Y-20.074 I-.317 J-.915 E.03507
G1 X-11.51 Y-20.323 E.00765
G1 X-12.792 Y-20.323 E.025
G2 X-13.483 Y-20.248 I-.256 J.872 E.01392
G3 X-9.905 Y-23.328 I3.24 J.146 E.10308
G1 X-10.279 Y-19.582 F30000
G1 F3000
G3 X-10.814 Y-20.311 I.097 J-.632 E.01957
G1 X-11.356 Y-20.753 E.01364
G1 X-12.984 Y-20.753 E.03175
G3 X-7.506 Y-20.753 I2.739 J.665 E.14647
G1 X-9.131 Y-20.753 E.03168
G2 X-9.886 Y-19.724 I.488 J1.149 E.02612
M73 P1 R43
G3 X-10.279 Y-19.582 I-.379 J-.433 E.00835
G1 X-10.243 Y-20.531 F30000
G1 F3000
G1 X-11.166 Y-21.285 E.02324
G1 X-12.286 Y-21.285 E.02184
G3 X-8.207 Y-21.285 I2.04 J1.35 E.09405
G1 X-9.321 Y-21.285 E.02171
G1 X-10.243 Y-20.531 E.02324
G1 X-10.243 Y-21.218 F30000
G1 F3000
G1 X-10.959 Y-21.803 E.01803
G3 X-9.523 Y-21.807 I.733 J5.382 E.02809
G1 X-10.243 Y-21.218 E.01815
G1 E-.8 F2100
;WIPE_START
G1 F3000
G1 X-9.523 Y-21.807
G1 X-10.592 Y-21.804
;WIPE_END
G1 X-11.408 Y-16.851 Z.5 F30000
G1 Z.1
G1 E.8 F2100
;TYPE:Inner wall
G1 F3000
G1 X-11.408 Y-16.965 E.00221
G2 X-9.079 Y-16.965 I1.164 J-3.305 E.04629
G1 X-9.079 Y-16.851 E.00221
G1 X-7.065 Y-16.851 E.03927
G1 X-7.065 Y-10.523 E.1234
G1 X-9.22 Y-10.523 E.04203
G2 X-11.267 Y-10.523 I-1.023 J3.254 E.04052
G1 X-13.493 Y-10.523 E.04342
G1 X-13.493 Y-16.851 E.1234
G1 X-11.448 Y-16.851 E.03989
G1 X-11.886 Y-17.33 F30000
G1 F3000
G1 X-11.886 Y-17.759 E.00836
G1 X-11.579 Y-17.568 E.00705
G2 X-8.601 Y-17.759 I1.334 J-2.526 E.06123
G1 X-8.601 Y-17.33 E.00836
G1 X-6.586 Y-17.33 E.03927
G1 X-6.586 Y-10.044 E.14206
G1 X-8.601 Y-10.044 E.03927
G1 X-8.601 Y-9.69 E.0069
G2 X-11.886 Y-9.69 I-1.643 J2.385 E.06812
G1 X-11.886 Y-10.044 E.0069
G1 X-13.972 Y-10.044 E.04066
G1 X-13.972 Y-17.33 E.14206
G1 X-11.926 Y-17.33 E.03989
G1 E-.8 F2100
;WIPE_START
G1 F3000
G1 X-11.886 Y-17.759
G1 X-11.579 Y-17.568
G1 X-11.216 Y-17.408
G1 X-10.834 Y-17.299
G1 X-10.442 Y-17.244
G1 X-10.424 Y-17.244
;WIPE_END
G1 X-12.843 Y-18.287 Z.5 F30000
G1 Z.1
G1 E.8 F2100
;TYPE:Outer wall
G1 F3000
G1 X-12.843 Y-19.373 E.02117
G1 X-12.001 Y-19.373 E.01643
G2 X-8.486 Y-19.373 I1.757 J-.732 E.08729
G1 X-7.643 Y-19.373 E.01643
G1 X-7.643 Y-18.287 E.02117
G1 X-5.629 Y-18.287 E.03927
G1 X-5.629 Y-9.087 E.17938
G1 X-7.643 Y-9.087 E.03927
G1 X-7.643 Y-8.073 E.01978
G1 X-8.486 Y-8.073 E.01644
G2 X-12 Y-8.073 I-1.757 J.732 E.08729
G1 X-12.843 Y-8.073 E.01644
G1 X-12.843 Y-9.087 E.01978
G1 X-14.929 Y-9.087 E.04066
G1 X-14.929 Y-18.287 E.17938
G1 X-12.883 Y-18.287 E.03989
G1 X-12.365 Y-17.808 F30000
;TYPE:Inner wall
G1 F3000
G1 X-12.365 Y-18.901 E.0213
G1 X-11.89 Y-18.378 E.01377
G2 X-8.597 Y-18.378 I1.646 J-1.74 E.07078
G1 X-8.122 Y-18.901 E.01377
G1 X-8.122 Y-17.808 E.0213
G1 X-6.108 Y-17.808 E.03927
G1 X-6.108 Y-9.566 E.16072
G1 X-8.122 Y-9.566 E.03927
G1 X-8.122 Y-8.809 E.01475
G1 X-8.323 Y-8.746 E.00411
G2 X-12.164 Y-8.746 I-1.92 J1.399 E.08719
G1 X-12.365 Y-8.809 E.00411
G1 X-12.365 Y-9.566 E.01475
G1 X-14.451 Y-9.566 E.04066
G1 X-14.451 Y-17.808 E.16072
G1 X-12.405 Y-17.808 E.03989
G1 E-.8 F2100
;WIPE_START
G1 F3000
G1 X-12.365 Y-18.901
G1 X-11.89 Y-18.378
G1 X-11.736 Y-18.25
;WIPE_END
G1 X-7.256 Y-15.641 Z.5 F30000
G1 Z.1
G1 E.8 F2100
;TYPE:Bottom surface
;WIDTH:0.524237
G1 F4800
G1 X-8.06 Y-16.445 E.02328
G1 X-8.771 Y-16.445 E.01457
G1 X-7.471 Y-15.146 E.03764
G1 X-7.471 Y-14.435 E.01457
G1 X-9.468 Y-16.431 E.05784
G1 X-9.984 Y-16.359 E.01066
G1 X-10.107 Y-16.359 E.00253
G1 X-7.471 Y-13.723 E.07635
G1 X-7.471 Y-13.012 E.01457
G1 X-10.869 Y-16.41 E.09843
G2 X-11.615 Y-16.445 I-.522 J3.196 E.01533
G1 X-7.471 Y-12.301 E.12003
G1 X-7.471 Y-11.59 E.01457
G1 X-12.326 Y-16.445 E.14063
G1 X-13.037 Y-16.445 E.01457
G1 X-7.522 Y-10.929 E.15978
G1 X-8.233 Y-10.929 E.01457
G1 X-13.087 Y-15.784 E.14063
G1 X-13.087 Y-15.073 E.01457
G1 X-8.944 Y-10.929 E.12003
G1 X-9.166 Y-10.929 E.00455
G2 X-9.784 Y-11.059 I-.794 J2.253 E.01297
G1 X-13.087 Y-14.361 E.09568
G1 X-13.087 Y-13.65 E.01457
G1 X-10.52 Y-11.083 E.07437
G2 X-11.129 Y-10.982 I.076 J2.336 E.01269
G1 X-13.087 Y-12.939 E.05672
G1 X-13.087 Y-12.228 E.01457
G1 X-11.788 Y-10.929 E.03763
G1 X-12.499 Y-10.929 E.01457
G1 X-13.302 Y-11.733 E.02327
G1 E-.8 F2100
;WIPE_START
G1 F4800
G1 X-12.499 Y-10.929
G1 X-11.788 Y-10.929
G1 X-11.896 Y-11.038
;WIPE_END
G1 X-9.652 Y-3.742 Z.5 F30000
G1 X-6.26 Y7.283 Z.5
G1 Z.1
G1 E.8 F2100
;TYPE:Inner wall
;WIDTH:0.5
G1 F3000
G1 X-5.335 Y8.208 E.0255
G1 X-5.335 Y17.687 E.18482
G1 X-6.26 Y18.612 E.0255
G1 X-15.739 Y18.612 E.18482
G1 X-16.664 Y17.687 E.0255
G1 X-16.664 Y8.208 E.18482
G1 X-15.739 Y7.283 E.0255
G1 X-6.3 Y7.283 E.18404
G1 X-6.062 Y6.804 F30000
G1 F3000
G1 X-4.857 Y8.01 E.03323
G1 X-4.857 Y17.885 E.19255
G1 X-6.062 Y19.09 E.03323
G1 X-15.938 Y19.09 E.19255
G1 X-17.143 Y17.885 E.03323
G1 X-17.143 Y8.01 E.19255
G1 X-15.938 Y6.804 E.03323
G1 X-6.102 Y6.804 E.19177
G1 E-.8 F2100
;WIPE_START
G1 F3000
G1 X-4.857 Y8.01
G1 X-4.857 Y8.277
;WIPE_END
G1 X-5.666 Y5.847 Z.5 F30000
G1 Z.1
G1 E.8 F2100
;TYPE:Outer wall
G1 F3000
G1 X-5.453 Y6.06 E.00587
G1 X-3.9 Y7.613 E.04282
G1 X-3.9 Y18.282 E.20801
G1 X-5.666 Y20.047 E.04869
G1 X-16.334 Y20.047 E.20801
G1 X-18.1 Y18.282 E.04869
G1 X-18.1 Y7.613 E.20801
G1 X-16.334 Y5.847 E.04869
G1 X-5.706 Y5.847 E.20723
G1 X-5.864 Y6.326 F30000
;TYPE:Inner wall
G1 F3000
G1 X-5.791 Y6.399 E.002
G1 X-4.378 Y7.811 E.03895
G1 X-4.378 Y18.084 E.20028
G1 X-5.864 Y19.569 E.04096
G1 X-16.136 Y19.569 E.20028
G1 X-17.621 Y18.083 E.04096
G1 X-17.621 Y7.811 E.20028
G1 X-16.136 Y6.326 E.04096
G1 X-5.904 Y6.326 E.1995
G1 E-.8 F2100
;WIPE_START
G1 F3000
G1 X-5.791 Y6.399
G1 X-4.472 Y7.718
;WIPE_END
G1 X-6.645 Y7.474 Z.5 F30000
G1 Z.1
G1 E.8 F2100
;TYPE:Bottom surface
;WIDTH:0.500745
G1 F4800
G1 X-5.742 Y8.377 E.02492
G1 X-5.742 Y9.055 E.01324
G1 X-7.107 Y7.69 E.03769
G1 X-7.785 Y7.69 E.01324
G1 X-5.742 Y9.732 E.05641
G1 X-5.742 Y10.41 E.01324
G1 X-8.463 Y7.69 E.07513
G1 X-9.14 Y7.69 E.01324
G1 X-5.742 Y11.088 E.09385
G1 X-5.742 Y11.766 E.01324
G1 X-9.818 Y7.69 E.11257
G1 X-10.496 Y7.69 E.01324
G1 X-5.742 Y12.444 E.13129
G1 X-5.742 Y13.122 E.01324
G1 X-11.174 Y7.69 E.15001
G1 X-11.852 Y7.69 E.01324
G1 X-5.742 Y13.799 E.16872
G1 X-5.742 Y14.477 E.01324
G1 X-12.53 Y7.69 E.18744
G1 X-13.207 Y7.69 E.01324
G1 X-5.742 Y15.155 E.20616
G1 X-5.742 Y15.833 E.01324
G1 X-13.885 Y7.69 E.22488
G1 X-14.563 Y7.69 E.01324
G1 X-5.742 Y16.511 E.2436
G1 X-5.742 Y17.188 E.01324
G1 X-15.241 Y7.69 E.26232
G1 X-15.571 Y7.69 E.00645
G1 X-15.745 Y7.864 E.0048
G1 X-5.916 Y17.692 E.27144
G1 X-6.255 Y18.031 E.00936
G1 X-16.084 Y8.202 E.27144
G1 X-16.257 Y8.376 E.0048
G1 X-16.257 Y8.707 E.00645
G1 X-6.759 Y18.205 E.26232
G1 X-7.437 Y18.205 E.01324
G1 X-16.257 Y9.384 E.2436
G1 X-16.257 Y10.062 E.01324
G1 X-8.115 Y18.205 E.22488
G1 X-8.792 Y18.205 E.01324
G1 X-16.257 Y10.74 E.20616
G1 X-16.257 Y11.418 E.01324
G1 X-9.47 Y18.205 E.18744
G1 X-10.148 Y18.205 E.01324
G1 X-16.257 Y12.096 E.16872
G1 X-16.257 Y12.773 E.01324
G1 X-10.826 Y18.205 E.15
G1 X-11.504 Y18.205 E.01324
G1 X-16.257 Y13.451 E.13128
G1 X-16.257 Y14.129 E.01324
G1 X-12.181 Y18.205 E.11256
G1 X-12.859 Y18.205 E.01324
G1 X-16.257 Y14.807 E.09385
G1 X-16.257 Y15.485 E.01324
G1 X-13.537 Y18.205 E.07513
G1 X-14.215 Y18.205 E.01324
G1 X-16.257 Y16.162 E.05641
G1 X-16.257 Y16.84 E.01324
G1 X-14.893 Y18.205 E.03769
G1 X-15.571 Y18.205 E.01324
G1 X-16.473 Y17.303 E.02492
G1 E-.8 F2100
;WIPE_START
G1 F4800
G1 X-15.571 Y18.205
G1 X-14.893 Y18.205
G1 X-14.925 Y18.172
;WIPE_END
G1 X-7.607 Y16.006 Z.5 F30000
G1 X9.485 Y10.945 Z.5
G1 Z.1
G1 E.8 F2100
;TYPE:Support interface
;WIDTH:0.5
G1 F3000
G3 X9.074 Y10.437 I.01 J-.428 E.01449
G1 X10.262 Y10.437 E.02318
G1 X9.661 Y11.039 E.01659
G2 X10.523 Y11.447 I.999 J-.997 E.01898
G1 X11.886 Y10.084 E.03758
G3 X11.884 Y10.185 I-.089 J.049 E.00207
G3 X10.723 Y11.447 I-1.009 J.236 E.03937
G1 E-.8 F2100
;WIPE_START
G1 F3000
G1 X11.205 Y11.447
G1 X11.55 Y11.225
G1 X11.911 Y10.439
G1 X11.885 Y10.198
;WIPE_END
G1 X10.962 Y9.988 Z.5 F30000
G1 Z.1
G1 E.8 F2100
;TYPE:Support
G1 F3000
;_SUPP_INTERFACE_FAN_END
G1 X8.896 Y9.896 E.04033
G1 X11.028 Y9.754 E.04167
G1 X10.982 Y9.919 E.00334
G1 E-.8 F2100
;WIPE_START
G1 F3000
G1 X11.028 Y9.754
G1 X9.204 Y9.876
;WIPE_END
G1 X11.434 Y6.97 Z.5 F30000
G1 Z.1
G1 E.8 F2100
;TYPE:Support interface
G1 F3000
G3 X11.551 Y7.46 I-2.833 J.934 E.00984
G2 X11.831 Y6.327 I-.721 J-.78 E.0241
G1 X11.38 Y6.778 E.01244
G1 X11.348 Y6.665 E.00229
G2 X10.384 Y6.503 I-.589 J.556 E.02045
M73 P2 R43
G1 X11.32 Y5.567 E.02581
G2 X9.114 Y6.503 I-.558 J1.754 E.05089
G3 X9.591 Y5.944 I.435 J-.112 E.01678
G1 E-.8 F2100
;WIPE_START
G1 F3000
G1 X9.131 Y6.191
G1 X9.114 Y6.503
G1 X9.972 Y5.715
;WIPE_END
G1 X9.592 Y7.186 Z.5 F30000
G1 Z.1
G1 E.8 F2100
;TYPE:Support
G1 F3000
;_SUPP_INTERFACE_FAN_END
G1 X9.579 Y7.044 E.00279
G1 X8.896 Y7.044 E.01332
G1 X10.962 Y6.952 E.04033
G1 X11.028 Y7.186 E.00474
G1 X9.664 Y7.186 E.0266
G1 E-.8 F2100
;WIPE_START
G1 F3000
G1 X11.028 Y7.186
G1 X10.962 Y6.952
G1 X10.57 Y6.97
;WIPE_END
G1 X15.919 Y6.502 Z.5 F30000
G1 Z.1
G1 E.8 F2100
;TYPE:Support interface
G1 F3000
G2 X17.34 Y5.901 I.41 J-1.011 E.03341
G2 X16.477 Y5.493 I-.997 J.994 E.01899
G1 X15.114 Y6.856 E.03758
G3 X15.115 Y6.755 I.088 J-.049 E.00206
G3 X16.278 Y5.493 I1.011 J-.235 E.03937
G1 E-.8 F2100
;WIPE_START
G1 F3000
G1 X15.795 Y5.493
G1 X15.45 Y5.714
G1 X15.089 Y6.502
G1 X15.114 Y6.742
;WIPE_END
G1 X16.938 Y6.502 Z.5 F30000
G1 Z.1
G1 E.8 F2100
G1 F3000
G1 X17.929 Y6.502 E.01932
G2 X17.516 Y5.994 I-.427 J-.074 E.01446
G1 E-.8 F2100
;WIPE_START
G1 F3000
G1 X17.865 Y6.181
G1 X17.929 Y6.502
G1 X16.938 Y6.502
;WIPE_END
G1 X18.029 Y6.986 Z.5 F30000
G1 Z.1
G1 E.8 F2100
;TYPE:Support
G1 F3000
;_SUPP_INTERFACE_FAN_END
G1 X17.727 Y7.188 E.00709
G1 X15.971 Y7.188 E.03424
G1 X16.038 Y6.951 E.00481
G1 X17.969 Y6.951 E.03765
G1 E-.8 F2100
;WIPE_START
G1 F3000
G1 X16.038 Y6.951
G1 X16.019 Y7.018
;WIPE_END
G1 X17.184 Y9.756 Z.5 F30000
G1 Z.1
G1 E.8 F2100
G1 F3000
G1 X17.078 Y9.896 E.00342
G1 X18.103 Y9.896 E.01998
G1 X16.038 Y9.986 E.0403
G1 X15.973 Y9.756 E.00465
G1 X17.112 Y9.756 E.02221
G1 E-.8 F2100
;WIPE_START
G1 F3000
G1 X15.973 Y9.756
G1 X16.038 Y9.986
G1 X16.659 Y9.959
;WIPE_END
G1 X17.4 Y11.005 Z.5 F30000
G1 Z.1
G1 E.8 F2100
;TYPE:Support interface
G1 F3000
G2 X17.929 Y10.435 I.032 J-.5 E.01734
G2 X16.798 Y11.447 I3.985 J5.59 E.02963
G1 X15.68 Y11.373 E.02185
G1 X16.618 Y10.435 E.02585
G1 X15.866 Y10.435 E.01465
G3 X15.621 Y10.162 I.058 J-.299 E.0077
G1 X15.169 Y10.613 E.01245
G3 X15.137 Y9.891 I1.548 J-.432 E.01422
G1 X15.449 Y9.479 E.01007
G2 X15.566 Y9.97 I4.197 J-.747 E.00985
G1 E-.8 F2100
;WIPE_START
G1 F3000
G1 X15.449 Y9.479
G1 X15.137 Y9.891
G1 X15.169 Y10.613
G1 X15.35 Y10.432
;WIPE_END
G1 X18.171 Y12.901 Z.5 F30000
G1 Z.1
G1 E.8 F2100
;TYPE:Support
G1 F3000
;_SUPP_INTERFACE_FAN_END
G1 X18.25 Y17.695 E.09348
G1 X15.225 Y20.72 E.08342
G1 X11.775 Y20.72 E.06726
G1 X8.75 Y17.695 E.08342
G1 X8.829 Y12.9 E.09349
G1 X7.732 Y11.266 E.03838
G1 X8.606 Y10.68 E.02051
G2 X8.84 Y11.192 I.581 J.044 E.01145
G3 X9.961 Y11.896 I-.427 J1.922 E.02632
G1 X11.337 Y11.896 E.02683
G1 X11.904 Y11.532 E.01313
G1 X12.371 Y10.514 E.02186
G2 X11.584 Y8.888 I-1.62 J-.219 E.03731
G2 X11.585 Y8.051 I-5.749 J-.422 E.01634
G1 X12.357 Y7.14 E.02328
G2 X11.337 Y5.044 I-2.072 J-.288 E.04821
G1 X9.972 Y5.044 E.02662
G3 X8.84 Y5.748 I-1.534 J-1.203 E.02652
G2 X8.67 Y7.044 I1.503 J.857 E.02613
