; HEADER_BLOCK_START
; generated by OrcaSlicer 2.0.0-beta on 2024-05-29 at 18:50:00
; total layer number: 221
; filament_density: 1.24
; filament_diameter: 1.75
; max_z_height: 18.00
; HEADER_BLOCK_END

; THUMBNAIL_BLOCK_START

;
; THUMBNAIL_BLOCK_END

; external perimeters extrusion width = 0.42mm
; perimeters extrusion width = 0.45mm
; infill extrusion width = 0.45mm
; solid infill extrusion width = 0.42mm
; top infill extrusion width = 0.42mm
; support material extrusion width = 0.42mm
; first layer extrusion width = 0.50mm

; external perimeters extrusion width = 0.42mm
; perimeters extrusion width = 0.45mm
; infill extrusion width = 0.45mm
; solid infill extrusion width = 0.42mm
; top infill extrusion width = 0.42mm
; support material extrusion width = 0.42mm
; first layer extrusion width = 0.50mm

; EXECUTABLE_BLOCK_START
M73 P0 R23
M106 S0
M106 P2 S0
;TYPE:Custom
M190 S55
M104 S220
G90
M83
G1 Z5 F6000
G1 E-1.5 F800
G1 X110 Y-110 F6000
G1 E2 F800
G1 Y-110 X55 Z0.25 F4800
G1 X-55 E8 F2400
G1 Y-109.6 F2400
G1 X55 E5 F2400
G1 Y-110 X55 Z0.45 F4800
G1 X-55 E8 F2400
G1 Y-109.6 F2400
G1 X55 E5 F2400
G92 E0
G90
G21
M83 ; use relative distances for extrusion
; filament start gcode
;right_extruder_material: PLA
SET_PRESSURE_ADVANCE ADVANCE=0.025; Override pressure advance value
M106 S0
M106 P2 S0
;LAYER_CHANGE
;Z:0.1
;HEIGHT:0.1
;BEFORE_LAYER_CHANGE
;0.1
G1 E-.8 F2100
;AFTER_LAYER_CHANGE
;0.1
;_SET_FAN_SPEED_CHANGING_LAYER
SET_VELOCITY_LIMIT ACCEL=500
G1 X2.277 Y-8.535 F30000
M73 P1 R23
G1 Z.4
G1 Z.1
G1 E.8 F2100
;TYPE:Skirt
;WIDTH:0.5
G1 F3000
G1 X16.062 Y-4.857 E.27818
G1 X17.385 Y-4.097 E.02973
G1 X18.152 Y-2.78 E.02973
G1 X18.257 Y-2 E.01534
G1 X18.257 Y8 E.19497
G1 X17.864 Y9.473 E.02973
G1 X16.789 Y10.555 E.02973
G1 X15.467 Y10.952 E.02691
G1 X-13.304 Y12.579 E.56186
G1 X-14.081 Y12.52 E.01519
G1 X-15.433 Y12.235 E.02694
G1 X-16.509 Y11.771 E.02285
G1 X-17.52 Y11.07 E.02399
G1 X-18.307 Y10.261 E.02199
G1 X-20.608 Y6.434 E.08708
G1 X-21.007 Y4.95 E.02996
G1 X-21.007 Y-4.95 E.19302
G1 X-20.593 Y-6.459 E.03051
G1 X-18.36 Y-10.179 E.0846
G1 X-17.545 Y-11.048 E.02323
G1 X-16.554 Y-11.746 E.02363
G1 X-15.558 Y-12.201 E.02135
G1 X-14.396 Y-12.487 E.02333
G1 X-13.196 Y-12.57 E.02345
G1 X-12.458 Y-12.467 E.01453
G1 X2.239 Y-8.545 E.29658
G1 X2.115 Y-8.083 F30000
G1 F3000
G1 X15.939 Y-4.395 E.27896
G1 X17.13 Y-3.671 E.02718
G1 X17.779 Y-2 E.03495
G1 X17.779 Y8 E.19497
G1 X17.387 Y9.338 E.02718
G1 X16.335 Y10.252 E.02718
G1 X15.44 Y10.475 E.01798
G1 X-13.331 Y12.101 E.56186
G1 X-13.983 Y12.052 E.01273
G1 X-15.335 Y11.767 E.02694
G1 X-16.237 Y11.378 E.01915
G1 X-17.247 Y10.676 E.02399
G1 X-17.907 Y9.999 E.01844
G1 X-20.194 Y6.194 E.08657
G1 X-20.529 Y4.95 E.02511
G1 X-20.529 Y-4.95 E.19302
G1 X-20.182 Y-6.215 E.02557
G1 X-17.952 Y-9.929 E.08446
G1 X-17.269 Y-10.657 E.01947
G1 X-16.279 Y-11.355 E.02363
G1 X-15.444 Y-11.736 E.01789
G1 X-14.282 Y-12.023 E.02333
G1 X-13.22 Y-12.092 E.02075
G1 X-12.582 Y-12.004 E.01256
G1 X2.076 Y-8.093 E.2958
G1 E-.8 F2100
;WIPE_START
G1 F3000
G1 X4.009 Y-7.578
;WIPE_END
G1 X8.335 Y-1.29 Z.5 F30000
G1 X13.464 Y6.164 Z.5
G1 Z.1
G1 E.8 F2100
;TYPE:Inner wall
G1 F3000
G1 X8.536 Y6.164 E.0961
G1 X8.536 Y-.164 E.1234
G1 X13.464 Y-.164 E.0961
G1 X13.464 Y6.124 E.12262
G1 X13.943 Y6.643 F30000
G1 F3000
G1 X8.057 Y6.643 E.11476
G1 X8.057 Y-.643 E.14206
G1 X13.943 Y-.643 E.11476
G1 X13.943 Y6.603 E.14128
G1 E-.8 F2100
;WIPE_START
G1 F3000
G1 X11.943 Y6.617
;WIPE_END
G1 X14.9 Y7.6 Z.5 F30000
G1 Z.1
G1 E.8 F2100
;TYPE:Outer wall
G1 F3000
G1 X7.1 Y7.6 E.15208
G1 X7.1 Y-1.6 E.17938
G1 X14.9 Y-1.6 E.15208
G1 X14.9 Y7.56 E.1786
G1 X14.421 Y7.121 F30000
;TYPE:Inner wall
G1 F3000
G1 X7.579 Y7.121 E.13342
G1 X7.579 Y-1.121 E.16072
G1 X14.421 Y-1.121 E.13342
G1 X14.421 Y7.081 E.15994
G1 E-.8 F2100
;WIPE_START
G1 F3000
G1 X12.421 Y7.093
;WIPE_END
G1 X13.273 Y1.038 Z.5 F30000
G1 Z.1
G1 E.8 F2100
;TYPE:Bottom surface
;WIDTH:0.520563
G1 F4800
G1 X12.477 Y.242 E.02288
G1 X11.772 Y.242 E.01435
G1 X13.058 Y1.528 E.03699
G1 X13.058 Y2.234 E.01435
G1 X11.066 Y.242 E.05729
G1 X10.36 Y.242 E.01435
G1 X13.058 Y2.94 E.07758
G1 X13.058 Y3.646 E.01435
G1 X9.654 Y.242 E.09788
G1 X8.948 Y.242 E.01435
G1 X13.058 Y4.352 E.11818
G1 X13.058 Y5.058 E.01435
G1 X8.942 Y.942 E.11835
G1 X8.942 Y1.648 E.01435
G1 X13.052 Y5.758 E.11818
G1 X12.346 Y5.758 E.01435
G1 X8.942 Y2.354 E.09788
G1 X8.942 Y3.06 E.01435
G1 X11.64 Y5.758 E.07758
G1 X10.934 Y5.758 E.01435
G1 X8.942 Y3.766 E.05728
G1 X8.942 Y4.472 E.01435
G1 X10.228 Y5.758 E.03698
G1 X9.523 Y5.758 E.01435
G1 X8.727 Y4.962 E.02288
G1 E-.8 F2100
;WIPE_START
G1 F4800
G1 X9.523 Y5.758
G1 X10.228 Y5.758
G1 X10.109 Y5.638
;WIPE_END
G1 X2.477 Y5.576 Z.5 F30000
G1 X-13.305 Y5.447 Z.5
G1 Z.1
G1 E.8 F2100
;TYPE:Support
;WIDTH:0.5
G1 F3000
G3 X-12.539 Y6.35 I-.219 J.962 E.02478
G1 X-12.235 Y6.6 E.00767
G1 X-10.258 Y6.524 E.03857
G3 X-16.744 Y6.523 I-3.243 J-.149 E.19309
M73 P2 R23
G1 X-14.766 Y6.6 E.03859
G3 X-13.82 Y5.482 I6.471 J4.52 E.0286
G3 X-13.376 Y5.437 I.356 J1.293 E.00873
G1 X-13.464 Y5.859 F30000
G1 F3000
G3 X-12.931 Y6.585 I-.095 J.629 E.01952
G1 X-12.389 Y7.031 E.01368
G1 X-10.762 Y7.031 E.03171
G3 X-16.24 Y7.031 I-2.739 J-.654 E.14673
G1 X-14.613 Y7.031 E.03172
G2 X-13.858 Y6.002 I-.487 J-1.149 E.02613
G3 X-13.464 Y5.859 I.38 J.436 E.00834
G1 X-13.498 Y6.808 F30000
G1 F3000
G1 X-12.579 Y7.562 E.0232
G1 X-11.47 Y7.562 E.02161
G3 X-15.592 Y7.562 I-2.061 J-1.385 E.09479
M73 P2 R22
G1 X-14.424 Y7.562 E.02278
G1 X-13.498 Y6.808 E.02328
G1 X-13.5 Y7.495 F30000
G1 F3000
G1 X-12.789 Y8.078 E.01793
G3 X-14.229 Y8.09 I-.769 J-5.821 E.02816
G1 X-13.5 Y7.495 E.01836
G1 E-.8 F2100
;WIPE_START
G1 F3000
G1 X-14.229 Y8.09
G1 X-13.171 Y8.081
;WIPE_END
G1 X-13.214 Y.449 Z.5 F30000
G1 X-13.27 Y-9.613 Z.5
G1 Z.1
G1 E.8 F2100
G1 F3000
G1 X-13.221 Y-9.609 E.00097
G3 X-10.257 Y-6.524 I-.28 J3.236 E.09107
G1 X-12.235 Y-6.6 E.03859
G3 X-13.175 Y-5.484 I-6.667 J-4.663 E.02849
G3 X-14.461 Y-6.35 I-.321 J-.912 E.03508
G1 X-14.765 Y-6.6 E.00768
G1 X-16.743 Y-6.524 E.03859
G3 X-13.688 Y-9.616 I3.25 J.155 E.09281
G1 X-13.688 Y-9.616 E0
G3 X-13.342 Y-9.617 I.176 J1.828 E.00676
G1 X-13.533 Y-5.859 F30000
G1 F3000
G3 X-14.068 Y-6.585 I.092 J-.628 E.01954
G1 X-14.611 Y-7.031 E.0137
G1 X-16.237 Y-7.031 E.03171
G3 X-13.669 Y-9.186 I2.732 J.647 E.07006
G1 X-13.669 Y-9.186 E0
G3 X-10.762 Y-7.031 I.17 J2.809 E.07664
G1 X-12.389 Y-7.031 E.03171
G2 X-13.141 Y-6.003 I.485 J1.144 E.02606
G3 X-13.533 Y-5.859 I-.381 J-.432 E.00834
G1 X-13.5 Y-6.806 F30000
G1 F3000
G1 X-14.421 Y-7.562 E.02322
G1 X-15.581 Y-7.562 E.02263
G3 X-11.476 Y-7.562 I2.053 J1.367 E.09456
G1 X-12.579 Y-7.562 E.0215
G1 X-13.5 Y-6.806 E.02324
G1 X-13.5 Y-7.494 F30000
G1 F3000
G1 X-14.232 Y-8.096 E.01848
G3 X-12.771 Y-8.093 I.713 J7.72 E.02854
G1 X-13.5 Y-7.494 E.0184
G1 E-.8 F2100
;WIPE_START
G1 F3000
G1 X-12.771 Y-8.093
G1 X-13.827 Y-8.095
;WIPE_END
G1 X-14.664 Y-3.164 Z.5 F30000
G1 Z.1
G1 E.8 F2100
;TYPE:Inner wall
G1 F3000
G1 X-14.664 Y-3.242 E.00152
G2 X-12.336 Y-3.243 I1.164 J-3.296 E.04629
G1 X-12.336 Y-3.164 E.00153
G1 X-10.786 Y-3.164 E.03022
G1 X-10.786 Y3.164 E.1234
G1 X-12.336 Y3.164 E.03022
G1 X-12.336 Y3.243 E.00153
G2 X-14.664 Y3.242 I-1.166 J3.298 E.04629
G1 X-14.664 Y3.164 E.00151
G1 X-16.214 Y3.164 E.03022
G1 X-16.214 Y-3.164 E.1234
G1 X-14.704 Y-3.164 E.02944
G1 X-15.143 Y-3.643 F30000
G1 F3000
G1 X-15.143 Y-4.036 E.00767
G1 X-14.837 Y-3.846 E.00703
G2 X-11.857 Y-4.036 I1.335 J-2.525 E.06125
G1 X-11.857 Y-3.643 E.00767
G1 X-10.307 Y-3.643 E.03022
G1 X-10.307 Y3.643 E.14206
G1 X-11.857 Y3.643 E.03022
G1 X-11.857 Y4.036 E.00767
G2 X-15.143 Y4.036 I-1.643 J2.365 E.06818
G1 X-15.143 Y3.643 E.00767
G1 X-16.693 Y3.643 E.03022
G1 X-16.693 Y-3.643 E.14206
G1 X-15.183 Y-3.643 E.02944
G1 E-.8 F2100
;WIPE_START
G1 F3000
G1 X-15.143 Y-4.036
G1 X-14.837 Y-3.846
G1 X-14.474 Y-3.686
G1 X-14.091 Y-3.576
G1 X-13.694 Y-3.521
G1 X-13.646 Y-3.521
;WIPE_END
G1 X-16.1 Y-4.6 Z.5 F30000
G1 Z.1
G1 E.8 F2100
;TYPE:Outer wall
G1 F3000
G1 X-16.1 Y-5.65 E.02047
G1 X-15.257 Y-5.65 E.01643
G1 X-15.141 Y-5.415 E.00512
G2 X-11.743 Y-5.65 I1.64 J-.968 E.08218
G1 X-10.9 Y-5.65 E.01643
G1 X-10.9 Y-4.6 E.02047
G1 X-9.35 Y-4.6 E.03022
G1 X-9.35 Y4.6 E.17938
G1 X-10.9 Y4.6 E.03022
G1 X-10.9 Y5.65 E.02047
G1 X-11.743 Y5.649 E.01644
G2 X-15.257 Y5.65 I-1.757 J.733 E.08728
G1 X-16.1 Y5.65 E.01643
G1 X-16.1 Y4.6 E.02047
G1 X-17.65 Y4.6 E.03022
G1 X-17.65 Y-4.6 E.17938
G1 X-16.14 Y-4.6 E.02944
G1 X-15.621 Y-4.121 F30000
;TYPE:Inner wall
G1 F3000
G1 X-15.621 Y-5.178 E.0206
G1 X-15.146 Y-4.656 E.01377
G2 X-11.852 Y-4.658 I1.646 J-1.74 E.07084
G1 X-11.379 Y-5.178 E.0137
G1 X-11.379 Y-4.121 E.02059
G1 X-9.829 Y-4.121 E.03022
G1 X-9.829 Y4.121 E.16072
G1 X-11.379 Y4.121 E.03022
G1 X-11.379 Y5.177 E.02059
G1 X-11.855 Y4.654 E.0138
G2 X-15.146 Y4.656 I-1.645 J1.742 E.07074
G1 X-15.621 Y5.178 E.01377
G1 X-15.621 Y4.121 E.0206
G1 X-17.171 Y4.121 E.03022
G1 X-17.171 Y-4.121 E.16072
G1 X-15.661 Y-4.121 E.02944
G1 E-.8 F2100
;WIPE_START
G1 F3000
G1 X-15.621 Y-5.178
G1 X-15.146 Y-4.656
G1 X-14.965 Y-4.504
;WIPE_END
G1 X-11.969 Y-2.973 Z.5 F30000
G1 Z.1
G1 E.8 F2100
;TYPE:Bottom surface
;WIDTH:0.511466
G1 F4800
G1 X-11.192 Y-2.197 E.02192
G1 X-11.192 Y-1.504 E.01383
G1 X-12.446 Y-2.758 E.0354
G2 X-12.725 Y-2.708 I-.053 J.51 E.00572
G1 X-13.045 Y-2.664 E.00646
G1 X-11.192 Y-.811 E.05231
G1 X-11.192 Y-.118 E.01383
G1 X-13.711 Y-2.636 E.07111
G1 X-14.274 Y-2.708 E.01133
G2 X-14.525 Y-2.758 I-.213 J.415 E.00518
G1 X-11.192 Y.575 E.0941
G1 X-11.192 Y1.268 E.01383
G1 X-15.218 Y-2.758 E.11367
G1 X-15.808 Y-2.758 E.01177
G1 X-15.808 Y-2.654 E.00207
G1 X-11.192 Y1.961 E.13031
G1 X-11.192 Y2.654 E.01383
G1 X-15.808 Y-1.961 E.13031
G1 X-15.808 Y-1.268 E.01383
G1 X-11.782 Y2.758 E.11366
G1 X-12.475 Y2.758 E.01383
G1 X-15.808 Y-.575 E.0941
G1 X-15.808 Y.118 E.01383
G1 X-13.289 Y2.636 E.0711
G2 X-13.955 Y2.663 I-.235 J2.397 E.01334
G1 X-15.808 Y.811 E.05231
G1 X-15.808 Y1.504 E.01383
G1 X-14.554 Y2.758 E.0354
G1 X-15.247 Y2.758 E.01383
G1 X-16.023 Y1.981 E.02192
M106 S255
M106 P2 S255
;LAYER_CHANGE
;Z:0.2
;HEIGHT:0.1
;BEFORE_LAYER_CHANGE
;0.2
G1 E-.8 F2100
;WIPE_START
G1 F4800
G1 X-15.247 Y2.758
G1 X-14.554 Y2.758
G1 X-14.702 Y2.61
;WIPE_END
;AFTER_LAYER_CHANGE
;0.2
;_SET_FAN_SPEED_CHANGING_LAYER
SET_VELOCITY_LIMIT ACCEL=10000
M140 S50 ; set bed temperature
G17
G3 Z.5 I-.165 J1.206 P1  F30000
G1 X13.919 Y6.519 Z.5
G1 Z.2
G1 E.8 F2100
SET_VELOCITY_LIMIT ACCEL=5000
;TYPE:Inner wall
;WIDTH:0.45
G1 F4974
G1 X8.081 Y6.519 E.10195
G1 X8.081 Y-.519 E.1229
G1 X13.919 Y-.519 E.10195
G1 X13.919 Y6.479 E.1222
SET_VELOCITY_LIMIT ACCEL=10000
G1 X14.348 Y6.948 F30000
SET_VELOCITY_LIMIT ACCEL=5000
G1 F4974
G1 X7.652 Y6.948 E.11691
M73 P3 R22
G1 X7.652 Y-.948 E.13786
G1 X14.348 Y-.948 E.11691
G1 X14.348 Y6.908 E.13717
SET_VELOCITY_LIMIT ACCEL=10000
G1 E-.8 F2100
;WIPE_START
G1 F18000
G1 X12.348 Y6.92
;WIPE_END
G1 X15.19 Y7.79 Z.6 F30000
G1 Z.2
G1 E.8 F2100
SET_VELOCITY_LIMIT ACCEL=5000
;TYPE:Outer wall
;WIDTH:0.42
G1 F4974
G1 X6.81 Y7.79 E.13607
G1 X6.81 Y-1.79 E.15556
G1 X15.19 Y-1.79 E.13607
G1 X15.19 Y7.75 E.15491
SET_VELOCITY_LIMIT ACCEL=10000
G1 X14.776 Y7.376 F30000
SET_VELOCITY_LIMIT ACCEL=5000
;TYPE:Inner wall
;WIDTH:0.45
G1 F4974
G1 X7.224 Y7.376 E.13188
G1 X7.224 Y-1.376 E.15283
G1 X14.776 Y-1.376 E.13188
G1 X14.776 Y7.336 E.15213
SET_VELOCITY_LIMIT ACCEL=10000
G1 X13.554 Y6.095 F30000
SET_VELOCITY_LIMIT ACCEL=7000
;TYPE:Internal solid infill
;WIDTH:0.367274
G1 F4974
G1 X13.489 Y6.132 E.00105
G1 X13.555 Y6.167 E.00106
SET_VELOCITY_LIMIT ACCEL=10000
G1 X12.844 Y6.347 F30000
SET_VELOCITY_LIMIT ACCEL=7000
;WIDTH:0.424195
G1 F4974
G1 X13.568 Y5.624 E.01679
G1 X13.568 Y5.054 E.00935
G1 X12.454 Y6.168 E.02585
G1 X11.884 Y6.168 E.00935
G1 X13.568 Y4.484 E.03907
G1 X13.568 Y3.915 E.00935
G1 X11.315 Y6.168 E.05228
G1 X10.745 Y6.168 E.00935
G1 X13.568 Y3.345 E.0655
G1 X13.568 Y2.776 E.00935
G1 X10.176 Y6.168 E.07872
G1 X9.606 Y6.168 E.00935
G1 X13.568 Y2.206 E.09193
G1 X13.568 Y1.637 E.00935
G1 X9.037 Y6.168 E.10515
G1 X8.467 Y6.168 E.00935
G1 X13.568 Y1.067 E.11837
G1 X13.568 Y.498 E.00935
G1 X8.432 Y5.633 E.11918
G1 X8.432 Y5.064 E.00935
G1 X13.568 Y-.072 E.11918
G1 X13.568 Y-.168 E.00157
G1 X13.094 Y-.168 E.00777
G1 X8.432 Y4.494 E.10819
G1 X8.432 Y3.925 E.00935
G1 X12.525 Y-.168 E.09497
G1 X11.955 Y-.168 E.00935
G1 X8.432 Y3.355 E.08175
G1 X8.432 Y2.786 E.00935
G1 X11.386 Y-.168 E.06854
G1 X10.816 Y-.168 E.00935
G1 X8.432 Y2.216 E.05532
G1 X8.432 Y1.646 E.00935
G1 X10.246 Y-.168 E.0421
G1 X9.677 Y-.168 E.00935
G1 X8.432 Y1.077 E.02889
G1 X8.432 Y.507 E.00935
G1 X9.287 Y-.347 E.01983
SET_VELOCITY_LIMIT ACCEL=10000
G1 X8.533 Y-.14 F30000
SET_VELOCITY_LIMIT ACCEL=7000
;WIDTH:0.444026
G1 F4974
G2 X8.539 Y-.059 I-.025 J.042 E.00367
SET_VELOCITY_LIMIT ACCEL=10000
G1 E-.8 F2100
;WIPE_START
G1 F15000
G1 X8.48 Y-.048
G1 X8.453 Y-.094
G1 X8.48 Y-.14
G1 X8.533 Y-.14
;WIPE_END
G1 X.978 Y-1.224 Z.6 F30000
G1 X-15.019 Y-3.519 Z.6
G1 Z.2
G1 E.8 F2100
SET_VELOCITY_LIMIT ACCEL=5000
;TYPE:Inner wall
;WIDTH:0.45
G1 F4974
G1 X-15.019 Y-3.791 E.00474
G2 X-13.711 Y-3.398 I1.664 J-3.17 E.02399
G2 X-11.981 Y-3.792 I.169 J-3.262 E.03138
G1 X-11.981 Y-3.519 E.00475
G1 X-10.331 Y-3.519 E.02881
G1 X-10.331 Y3.519 E.1229
G1 X-11.981 Y3.519 E.02881
G1 X-11.981 Y3.792 E.00475
G2 X-14.501 Y3.565 I-1.52 J2.775 E.04546
G1 X-15.019 Y3.791 E.00987
G1 X-15.019 Y3.519 E.00474
G1 X-16.669 Y3.519 E.02881
G1 X-16.669 Y-3.519 E.1229
G1 X-15.059 Y-3.519 E.02811
SET_VELOCITY_LIMIT ACCEL=10000
G1 X-15.448 Y-3.948 F30000
SET_VELOCITY_LIMIT ACCEL=5000
G1 F4974
G1 X-15.448 Y-4.681 E.01281
G1 X-14.997 Y-4.305 E.01026
G2 X-12.009 Y-4.301 I1.497 J-2.103 E.05563
G1 X-11.552 Y-4.68 E.01037
G1 X-11.552 Y-3.948 E.01278
G1 X-9.902 Y-3.948 E.02881
G1 X-9.902 Y3.948 E.13786
G1 X-11.552 Y3.948 E.02881
G1 X-11.552 Y4.68 E.01278
G1 X-12.009 Y4.301 E.01037
G2 X-14.997 Y4.305 I-1.491 J2.107 E.05563
G1 X-15.448 Y4.681 E.01026
G1 X-15.448 Y3.948 E.01281
G1 X-17.098 Y3.948 E.02881
G1 X-17.098 Y-3.948 E.13786
G1 X-15.488 Y-3.948 E.02811
SET_VELOCITY_LIMIT ACCEL=10000
G1 E-.8 F2100
;WIPE_START
G1 F18000
G1 X-15.448 Y-4.681
G1 X-14.997 Y-4.305
G1 X-14.693 Y-4.116
G1 X-14.4 Y-3.988
;WIPE_END
G1 X-16.29 Y-4.79 Z.6 F30000
G1 Z.2
G1 E.8 F2100
SET_VELOCITY_LIMIT ACCEL=5000
;TYPE:Outer wall
;WIDTH:0.42
G1 F4974
G1 X-16.29 Y-5.913 E.01824
G1 X-16.263 Y-5.94 E.00062
G1 X-15.153 Y-5.94 E.01802
G2 X-11.846 Y-5.94 I1.654 J-.44 E.07285
G1 X-10.737 Y-5.94 E.01801
G1 X-10.71 Y-5.913 E.00062
G1 X-10.71 Y-4.79 E.01824
G1 X-9.087 Y-4.79 E.02635
G1 X-9.06 Y-4.763 E.00062
G1 X-9.06 Y4.763 E.15468
G1 X-9.087 Y4.79 E.00062
G1 X-10.71 Y4.79 E.02635
G1 X-10.71 Y5.913 E.01824
G1 X-10.737 Y5.94 E.00062
G1 X-11.846 Y5.94 E.01801
G2 X-15.153 Y5.94 I-1.654 J.44 E.07285
G1 X-16.263 Y5.94 E.01802
G1 X-16.29 Y5.913 E.00062
G1 X-16.29 Y4.79 E.01824
G1 X-17.913 Y4.79 E.02635
G1 X-17.94 Y4.763 E.00062
G1 X-17.94 Y-4.763 E.15468
G1 X-17.913 Y-4.79 E.00062
G1 X-16.33 Y-4.79 E.0257
SET_VELOCITY_LIMIT ACCEL=10000
G1 X-15.876 Y-4.376 F30000
SET_VELOCITY_LIMIT ACCEL=5000
;TYPE:Inner wall
;WIDTH:0.45
G1 F4974
G1 X-15.876 Y-5.526 E.02008
G1 X-15.445 Y-5.526 E.00753
G2 X-11.554 Y-5.526 I1.945 J-.853 E.08587
G1 X-11.124 Y-5.526 E.00752
G1 X-11.124 Y-4.376 E.02008
G1 X-9.474 Y-4.376 E.02881
G1 X-9.474 Y4.376 E.15283
G1 X-11.124 Y4.376 E.02881
G1 X-11.124 Y5.526 E.02008
G1 X-11.554 Y5.526 E.00752
G2 X-15.445 Y5.526 I-1.945 J.853 E.08587
G1 X-15.876 Y5.526 E.00753
G1 X-15.876 Y4.376 E.02008
G1 X-17.526 Y4.376 E.02881
G1 X-17.526 Y-4.376 E.15283
G1 X-15.916 Y-4.376 E.02811
SET_VELOCITY_LIMIT ACCEL=10000
G1 X-16.217 Y-3.14 F30000
SET_VELOCITY_LIMIT ACCEL=7000
;TYPE:Internal solid infill
;WIDTH:0.444028
G1 F4974
G2 X-16.211 Y-3.059 I-.025 J.042 E.00367
SET_VELOCITY_LIMIT ACCEL=10000
G1 X-10.503 Y2.531 F30000
SET_VELOCITY_LIMIT ACCEL=7000
;WIDTH:0.424832
G1 F4974
G1 X-11.139 Y3.168 E.0148
G1 X-11.71 Y3.168 E.00938
G1 X-10.682 Y2.14 E.02389
G1 X-10.682 Y1.57 E.00938
G1 X-12.355 Y3.242 E.03888
G1 X-12.797 Y3.114 E.00756
G1 X-10.682 Y.999 E.04915
G1 X-10.682 Y.429 E.00938
G1 X-13.299 Y3.046 E.06083
