; HEADER_BLOCK_START
; generated by OrcaSlicer 2.0.0-beta on 2024-05-05 at 17:50:54
; total layer number: 292
; filament_density: 1.24
; filament_diameter: 1.75
; max_z_height: 23.20
; HEADER_BLOCK_END

; THUMBNAIL_BLOCK_START

;
; THUMBNAIL_BLOCK_END

; external perimeters extrusion width = 0.42mm
; perimeters extrusion width = 0.45mm
; infill extrusion width = 0.45mm
; solid infill extrusion width = 0.42mm
; top infill extrusion width = 0.42mm
; support material extrusion width = 0.42mm
; first layer extrusion width = 0.50mm

; external perimeters extrusion width = 0.42mm
; perimeters extrusion width = 0.45mm
; infill extrusion width = 0.45mm
; solid infill extrusion width = 0.42mm
; top infill extrusion width = 0.42mm
; support material extrusion width = 0.42mm
; first layer extrusion width = 0.50mm

; external perimeters extrusion width = 0.42mm
; perimeters extrusion width = 0.45mm
; infill extrusion width = 0.45mm
; solid infill extrusion width = 0.42mm
; top infill extrusion width = 0.42mm
; support material extrusion width = 0.42mm
; first layer extrusion width = 0.50mm

; external perimeters extrusion width = 0.42mm
; perimeters extrusion width = 0.45mm
; infill extrusion width = 0.45mm
; solid infill extrusion width = 0.42mm
; top infill extrusion width = 0.42mm
; support material extrusion width = 0.42mm
; first layer extrusion width = 0.50mm

; EXECUTABLE_BLOCK_START
M73 P0 R85
M106 S0
M106 P2 S0
;TYPE:Custom
M190 S55
M104 S220
G90
M83
G1 Z5 F6000
G1 E-1.5 F800
G1 X110 Y-110 F6000
G1 E2 F800
G1 Y-110 X55 Z0.25 F4800
G1 X-55 E8 F2400
G1 Y-109.6 F2400
G1 X55 E5 F2400
G1 Y-110 X55 Z0.45 F4800
G1 X-55 E8 F2400
G1 Y-109.6 F2400
G1 X55 E5 F2400
G92 E0
G90
G21
M83 ; use relative distances for extrusion
; filament start gcode
;right_extruder_material: PLA
SET_PRESSURE_ADVANCE ADVANCE=0.025; Override pressure advance value
M106 S0
M106 P2 S0
;LAYER_CHANGE
;Z:0.2
;HEIGHT:0.2
;BEFORE_LAYER_CHANGE
;0.2
G1 E-.8 F2100
;AFTER_LAYER_CHANGE
;0.2
;_SET_FAN_SPEED_CHANGING_LAYER
SET_VELOCITY_LIMIT ACCEL=500
G1 X-13.199 Y60.04 F30000
G1 Z.4
G1 Z.2
G1 E.8 F2100
;TYPE:Skirt
;WIDTH:0.5
G1 F3000
G1 X-75.426 Y46.36 E2.37308
G1 X-76.861 Y45.575 E.06093
G1 X-78.111 Y44.325 E.06584
G1 X-78.965 Y42.264 E.08307
G1 X-78.965 Y-64.687 E3.98352
G1 X-78.111 Y-66.747 E.08307
G1 X-77.111 Y-67.747 E.05267
G1 X-75.443 Y-68.574 E.06936
G1 X-59.883 Y-70.665 E.58473
G1 X69.167 Y-72.113 E4.80694
G1 X75.506 Y-72.113 E.23608
G1 X77.566 Y-71.26 E.08307
G1 X80.443 Y-68.383 E.15155
G1 X81.297 Y-66.327 E.08291
G1 X81.497 Y66.323 E4.9407
G1 X81.104 Y67.784 E.05638
G1 X80.03 Y68.852 E.05638
G1 X79.229 Y69.164 E.03205
G1 X72.947 Y70.592 E.23996
G1 X72.301 Y70.665 E.02421
G1 X35.451 Y70.665 E1.37252
G1 X34.825 Y70.597 E.02344
G1 X-13.16 Y60.049 E1.82991
G1 X-13.061 Y59.602 F30000
G1 F3000
G1 X-75.328 Y45.914 E2.37457
G1 X-76.538 Y45.252 E.05137
G1 X-77.788 Y44.002 E.06584
G1 X-78.508 Y42.264 E.07004
G1 X-78.508 Y-64.687 E3.98352
G1 X-77.788 Y-66.424 E.07004
G1 X-76.788 Y-67.424 E.05267
G1 X-75.381 Y-68.122 E.05848
G1 X-59.878 Y-70.208 E.58263
G1 X69.167 Y-71.656 E4.80675
G1 X75.506 Y-71.656 E.23608
G1 X77.243 Y-70.937 E.07004
G1 X80.12 Y-68.06 E.15155
G1 X80.84 Y-66.326 E.06991
G1 X81.04 Y66.323 E4.94067
G1 X80.648 Y67.654 E.05169
G1 X79.127 Y68.718 E.06914
G1 X72.845 Y70.147 E.23996
G1 X72.301 Y70.208 E.02042
G1 X35.451 Y70.208 E1.37252
G1 X34.923 Y70.151 E.01976
G1 X-13.022 Y59.611 E1.82842
G1 E-.8 F2100
;WIPE_START
G1 F3000
G1 X-14.976 Y59.181
;WIPE_END
G1 X-17.451 Y51.961 Z.6 F30000
G1 X-54.1 Y-54.923 Z.6
G1 Z.2
G1 E.8 F2100
;TYPE:Support
G1 F3000
G1 X-54.1 Y-46.379 E.31825
G1 X-54.778 Y-45.701 E.0357
G1 X-58.323 Y-45.701 E.13201
G1 X-59 Y-46.379 E.0357
G1 X-59 Y-54.923 E.31825
G1 X-58.323 Y-55.601 E.0357
G1 X-54.778 Y-55.601 E.13201
G1 X-54.149 Y-54.971 E.03315
G1 X-58.589 Y-54.753 F30000
G1 F3000
G1 X-58.152 Y-55.189 E.02301
G1 X-54.949 Y-55.189 E.11932
G1 X-54.512 Y-54.753 E.02301
G1 X-54.512 Y-46.549 E.30555
G1 X-54.949 Y-46.112 E.02301
G1 X-58.152 Y-46.112 E.11932
G1 X-58.589 Y-46.549 E.02301
G1 X-58.589 Y-54.753 E.30555
G1 X-58.081 Y-54.542 F30000
G1 F3000
G1 X-57.942 Y-54.682 E.00734
G1 X-55.159 Y-54.682 E.10365
G1 X-55.02 Y-54.542 E.00734
G1 X-55.02 Y-46.759 E.28988
M73 P0 R84
G1 X-55.159 Y-46.62 E.00734
G1 X-57.942 Y-46.62 E.10365
G1 X-58.081 Y-46.759 E.00734
G1 X-58.081 Y-54.542 E.28988
G1 X-57.573 Y-54.174 F30000
G1 F3000
G1 X-55.528 Y-54.174 E.0762
G1 X-55.528 Y-47.128 E.26243
G1 X-57.573 Y-47.128 E.0762
G1 X-57.573 Y-54.174 E.26243
G1 X-57.066 Y-53.666 F30000
G1 F3000
G1 X-56.035 Y-53.666 E.03837
G1 X-56.035 Y-47.636 E.2246
G1 X-57.066 Y-47.636 E.03837
G1 X-57.066 Y-53.666 E.2246
G1 E-.8 F2100
;WIPE_START
G1 F3000
G1 X-57.066 Y-51.666
;WIPE_END
G1 X-55.944 Y-59.215 Z.6 F30000
G1 X-55.758 Y-60.468 Z.6
G1 Z.2
G1 E.8 F2100
G1 F3000
G3 X-57.287 Y-60.516 I-.791 J.823 E.20476
G1 X-55.812 Y-60.511 E.05495
G1 X-57.174 Y-59.247 F30000
G1 F3000
G3 X-57.116 Y-60.105 I.673 J-.385 E.03396
G1 X-55.987 Y-60.105 E.04205
G3 X-57.174 Y-59.247 I-.566 J.468 E.08945
G1 E-.8 F2100
;WIPE_START
G1 F3000
G1 X-56.694 Y-58.916
G1 X-56.136 Y-59.03
G1 X-55.825 Y-59.515
G1 X-55.897 Y-59.776
;WIPE_END
G1 X-54.385 Y-56.551 Z.6 F30000
G1 Z.2
G1 E.8 F2100
;TYPE:Outer wall
G1 F3000
G1 X-53.15 Y-55.316 E.06502
G1 X-53.15 Y-45.985 E.34756
G1 X-54.385 Y-44.751 E.06502
G1 X-58.716 Y-44.751 E.16133
G1 X-59.95 Y-45.985 E.06502
G1 X-59.95 Y-55.316 E.34756
G1 X-58.716 Y-56.551 E.06502
G1 X-54.425 Y-56.551 E.15984
G1 E-.8 F2100
;WIPE_START
G1 F3000
G1 X-53.15 Y-55.316
G1 X-53.15 Y-55.091
;WIPE_END
G1 X-54.68 Y-58.684 Z.6 F30000
G1 Z.2
G1 E.8 F2100
G1 F3000
G1 X-54.693 Y-58.655 E.00119
G3 X-57.29 Y-61.603 I-1.857 J-.982 E.30256
G1 X-56.976 Y-61.694 E.01217
G3 X-54.56 Y-58.966 I.426 J2.057 E.16434
G1 X-54.665 Y-58.721 E.00991
G1 E-.8 F2100
;WIPE_START
G1 F3000
G1 X-54.693 Y-58.655
G1 X-54.874 Y-58.37
G1 X-55.091 Y-58.125
G1 X-55.362 Y-57.904
G1 X-55.655 Y-57.736
G1 X-55.972 Y-57.617
G1 X-56.205 Y-57.57
;WIPE_END
G1 X-63.637 Y-59.306 Z.6 F30000
G1 X-68.18 Y-60.367 Z.6
G1 Z.2
G1 E.8 F2100
G1 F3000
G1 X-68.196 Y-60.375 E.00065
G3 X-68.484 Y-63.095 I.145 J-1.391 E.14184
G1 X-68.197 Y-63.156 E.01092
G3 X-67.905 Y-60.375 I.146 J1.391 E.1636
G1 X-68.14 Y-60.368 E.00878
G1 X-68.18 Y-59.91 F30000
;TYPE:Inner wall
G1 F3000
G1 X-68.244 Y-59.92 E.0024
G3 X-68.626 Y-63.532 I.193 J-1.847 E.18833
G1 X-68.245 Y-63.613 E.0145
G3 X-67.857 Y-59.92 I.194 J1.847 E.21722
G1 X-68.14 Y-59.911 E.01056
G1 E-.8 F2100
;WIPE_START
G1 F3000
G1 X-68.244 Y-59.92
G1 X-68.626 Y-59.991
G1 X-68.981 Y-60.149
G1 X-69.296 Y-60.378
G1 X-69.557 Y-60.667
G1 X-69.727 Y-60.962
;WIPE_END
G1 X-72.421 Y-63.156 Z.6 F30000
G1 Z.2
G1 E.8 F2100
;TYPE:Outer wall
G1 F3000
G1 X-72.404 Y-63.156 E.00062
G3 X-72.984 Y-63.095 I-.147 J1.391 E.30538
G1 X-72.697 Y-63.156 E.01092
G1 X-72.461 Y-63.156 E.00881
G1 X-72.293 Y-63.6 F30000
;TYPE:Inner wall
G1 F3000
G1 X-71.975 Y-63.532 E.01208
G3 X-73.126 Y-63.532 I-.576 J1.765 E.39095
G1 X-72.745 Y-63.613 E.0145
G3 X-72.356 Y-63.613 I.194 J1.847 E.01452
G1 X-72.332 Y-63.608 E.00092
G1 E-.8 F2100
;WIPE_START
G1 F3000
G1 X-71.975 Y-63.532
G1 X-71.62 Y-63.374
G1 X-71.305 Y-63.145
G1 X-71.044 Y-62.856
G1 X-70.85 Y-62.519
G1 X-70.825 Y-62.444
;WIPE_END
G1 X-63.966 Y-59.098 Z.6 F30000
G1 X-62.2 Y-58.237 Z.6
G1 Z.2
G1 E.8 F2100
;TYPE:Outer wall
G1 F3000
G1 X-74.885 Y-58.237 E.47244
G1 X-75.65 Y-59.002 E.04033
G1 X-75.65 Y-64.521 E.20555
G1 X-74.885 Y-65.287 E.04033
G1 X-59.45 Y-65.287 E.57487
M73 P1 R84
G1 X-59.45 Y-67.351 E.07688
G1 X-53.65 Y-67.351 E.21603
G1 X-53.65 Y-65.287 E.07688
G1 X-51.216 Y-65.287 E.09067
G1 X-51.15 Y-65.221 E.00346
G1 X-51.15 Y-44.616 E.76744
G1 X-51.716 Y-44.051 E.0298
G1 X-61.635 Y-44.051 E.36943
G1 X-62.2 Y-44.616 E.0298
G1 X-62.2 Y-58.197 E.50582
G1 X-61.743 Y-58.694 F30000
;TYPE:Inner wall
G1 F3000
G1 X-74.695 Y-58.694 E.48242
G1 X-75.193 Y-59.192 E.02623
G1 X-75.193 Y-64.332 E.19144
G1 X-74.695 Y-64.83 E.02623
G1 X-58.993 Y-64.83 E.58484
G1 X-58.993 Y-66.894 E.07688
G1 X-54.108 Y-66.894 E.18198
G1 X-54.108 Y-64.83 E.07688
G1 X-51.608 Y-64.83 E.09312
G1 X-51.608 Y-44.806 E.74581
G1 X-51.906 Y-44.508 E.01569
G1 X-53.981 Y-44.508 E.07732
G1 X-52.693 Y-45.796 E.06784
G1 X-52.693 Y-55.506 E.36166
G1 X-54.195 Y-57.008 E.07912
G1 X-55.653 Y-57.008 E.05429
G1 X-55.694 Y-57.233 E.00853
G2 X-58.471 Y-57.945 I-.863 J-2.405 E.48469
G2 X-57.412 Y-57.222 I2.142 J-2.002 E.04817
G1 X-57.46 Y-57.008 E.00818
G1 X-58.906 Y-57.008 E.05385
G1 X-60.408 Y-55.506 E.07912
G1 X-60.408 Y-45.796 E.36166
G1 X-59.12 Y-44.508 E.06784
G1 X-61.445 Y-44.508 E.08663
G1 X-61.743 Y-44.806 E.01569
G1 X-61.743 Y-58.654 E.51579
G1 E-.8 F2100
;WIPE_START
G1 F3000
G1 X-63.743 Y-58.66
;WIPE_END
G1 X-57.21 Y-57.077 Z.6 F30000
G1 Z.2
G1 E.8 F2100
;TYPE:Gap infill
;WIDTH:0.584641
G1 F3000
G2 X-55.9 Y-57.086 I.614 J-6.071 E.05796
G1 E-.8 F2100
;WIPE_START
G1 F3000
G1 X-56.266 Y-57.051
G1 X-56.64 Y-57.044
G1 X-57.21 Y-57.077
;WIPE_END
G1 X-52.15 Y-55.286 Z.6 F30000
G1 Z.2
G1 E.8 F2100
;WIDTH:0.671684
G1 F3000
G1 X-52.15 Y-46.015 E.47499
G1 E-.8 F2100
;WIPE_START
G1 F3000
G1 X-52.15 Y-48.015
;WIPE_END
G1 X-51.857 Y-44.815 Z.6 F30000
G1 Z.2
G1 E.8 F2100
;TYPE:Bottom surface
;WIDTH:0.575953
G1 F4800
G1 X-52.491 Y-45.448 E.03894
G1 X-52.868 Y-45.072 E.02315
G1 X-52.487 Y-44.691 E.0234
G1 E-.8 F2100
;WIPE_START
G1 F4800
G1 X-52.868 Y-45.072
G1 X-52.491 Y-45.448
G1 X-51.857 Y-44.815
;WIPE_END
G1 X-51.836 Y-45.638 Z.6 F30000
G1 Z.2
G1 E.8 F2100
;TYPE:Gap infill
;WIDTH:0.12561
G1 F3000
G1 X-52.381 Y-45.751 E.00375
G1 X-52.465 Y-45.751 E.00057
G1 E-.8 F2100
;WIPE_START
G1 F3000
G1 X-52.381 Y-45.751
G1 X-51.836 Y-45.638
;WIPE_END
G1 X-54.412 Y-44.401 Z.6 F30000
G1 Z.2
G1 E.8 F2100
;WIDTH:0.28584
G1 F3000
G1 X-58.689 Y-44.401 E.08468
G1 E-.8 F2100
;WIPE_START
G1 F3000
G1 X-56.689 Y-44.401
;WIPE_END
G1 X-61.452 Y-50.365 Z.6 F30000
G1 X-70.056 Y-61.137 Z.6
G1 Z.2
G1 E.8 F2100
;WIDTH:0.359165
G1 F3000
G1 X-70.162 Y-61.223 E.0035
;WIDTH:0.372562
G1 X-70.267 Y-61.309 E.00365
;WIDTH:0.423493
G1 X-70.3 Y-61.339 E.0014
G1 X-70.3 Y-61.542 E.00629
;WIDTH:0.382689
G1 X-70.3 Y-61.745 E.00562
;WIDTH:0.379699
G1 X-70.3 Y-61.981 E.00648
;WIDTH:0.425124
G1 X-70.3 Y-62.184 E.00632
;WIDTH:0.431253
G1 X-70.284 Y-62.199 E.00071
;WIDTH:0.401077
G1 X-70.267 Y-62.215 E.00066
;WIDTH:0.372592
G1 X-70.162 Y-62.3 E.00365
;WIDTH:0.345797
G1 X-70.056 Y-62.386 E.00335
G1 E-.8 F2100
;WIPE_START
G1 F3000
G1 X-70.162 Y-62.3
;WIPE_END
G1 X-74.697 Y-62.753 Z.6 F30000
G1 Z.2
G1 E.8 F2100
;WIDTH:0.484295
G1 F3000
G1 X-74.737 Y-62.504 E.00906
;WIDTH:0.441869
G1 X-74.776 Y-62.255 E.00819
;WIDTH:0.416542
G1 X-74.78 Y-62.216 E.0012
;WIDTH:0.388657
G2 X-74.78 Y-61.308 I4.489 J.454 E.02563
;WIDTH:0.416541
G1 X-74.776 Y-61.269 E.0012
;WIDTH:0.441869
G1 X-74.737 Y-61.02 E.00819
;WIDTH:0.463081
G1 X-74.697 Y-60.771 E.00862
G1 E-.8 F2100
;WIPE_START
G1 F3000
G1 X-74.737 Y-61.02
;WIPE_END
G1 X-67.206 Y-62.261 Z.6 F30000
G1 X-52.732 Y-64.647 Z.6
G1 Z.2
G1 E.8 F2100
;TYPE:Bottom surface
;WIDTH:0.508252
G1 F4800
G1 X-51.996 Y-63.911 E.03946
G1 X-51.996 Y-63.253 E.02495
G1 X-53.39 Y-64.647 E.07475
G1 E-.8 F2100
;WIPE_START
G1 F4800
G1 X-51.996 Y-63.253
G1 X-51.996 Y-63.282
;WIPE_END
G1 X-54.29 Y-66.205 Z.6 F30000
G1 Z.2
G1 E.8 F2100
G1 F4800
G1 X-54.59 Y-66.505 E.01608
G1 X-55.248 Y-66.505 E.02495
G1 X-54.29 Y-65.547 E.05137
G1 E-.8 F2100
;WIPE_START
G1 F4800
G1 X-55.248 Y-66.505
G1 X-54.603 Y-66.505
;WIPE_END
G1 X-56.112 Y-66.711 Z.6 F30000
G1 Z.2
G1 E.8 F2100
G1 F4800
G1 X-54.496 Y-65.095 E.08666
G1 X-54.496 Y-64.441 E.02479
G1 X-53.842 Y-64.441 E.02479
G1 X-51.996 Y-62.595 E.09901
G1 X-51.996 Y-61.937 E.02495
G1 X-56.564 Y-66.505 E.24498
G1 X-57.222 Y-66.505 E.02495
G1 X-51.996 Y-61.279 E.28027
G1 X-51.996 Y-60.621 E.02495
G1 X-57.881 Y-66.505 E.31556
G1 X-58.539 Y-66.505 E.02495
G1 X-51.996 Y-59.963 E.35085
G1 X-51.996 Y-59.305 E.02495
G1 X-58.605 Y-65.913 E.3544
G1 X-58.605 Y-65.255 E.02495
G1 X-55.842 Y-62.492 E.14817
G1 X-55.723 Y-62.468 E.00459
G3 X-53.697 Y-60.348 I-.861 J2.851 E.11625
G1 X-51.996 Y-58.646 E.09124
G1 X-51.996 Y-57.988 E.02495
G1 X-53.605 Y-59.597 E.08626
G1 X-53.64 Y-59.157 E.01675
G1 X-53.677 Y-59.011 E.0057
G1 X-51.996 Y-57.33 E.09012
G1 X-51.996 Y-56.672 E.02495
G1 X-53.835 Y-58.511 E.09859
G3 X-54.059 Y-58.077 I-1.447 J-.472 E.0186
G1 X-51.996 Y-56.014 E.1106
G1 X-51.996 Y-55.675 E.01288
G1 X-52.313 Y-55.675 E.01201
G1 X-54.485 Y-57.845 E.11642
G1 E-.8 F2100
;WIPE_START
G1 F4800
G1 X-53.07 Y-56.431
;WIPE_END
G1 X-56.373 Y-62.366 Z.6 F30000
G1 Z.2
G1 E.8 F2100
G1 F4800
G1 X-58.605 Y-64.597 E.11967
G1 X-58.605 Y-64.441 E.00592
G1 X-59.107 Y-64.441 E.01904
G1 X-57.181 Y-62.515 E.10328
G1 X-57.59 Y-62.397 E.01614
G1 X-57.679 Y-62.355 E.00373
G1 X-59.765 Y-64.441 E.11187
G1 X-60.423 Y-64.441 E.02495
G1 X-58.112 Y-62.13 E.12392
G1 X-58.421 Y-61.917 E.01423
G1 X-58.49 Y-61.85 E.00364
G1 X-61.081 Y-64.441 E.13893
G1 X-61.739 Y-64.441 E.02495
G1 X-58.815 Y-61.517 E.1568
G1 X-59.087 Y-61.131 E.01791
G1 X-62.397 Y-64.441 E.17752
G1 X-63.055 Y-64.441 E.02495
G1 X-59.3 Y-60.686 E.20138
G2 X-59.442 Y-60.17 I1.547 J.703 E.02038
G1 X-63.714 Y-64.441 E.22905
G1 X-64.372 Y-64.441 E.02495
G1 X-59.491 Y-59.56 E.26174
G1 X-59.491 Y-59.406 E.00583
G1 X-59.413 Y-58.924 E.01852
G1 X-59.362 Y-58.773 E.00603
G1 X-65.03 Y-64.441 E.30394
G1 X-65.688 Y-64.441 E.02495
G1 X-58.643 Y-57.396 E.37778
G1 X-59.066 Y-57.396 E.01606
G1 X-59.184 Y-57.279 E.00629
G1 X-66.346 Y-64.441 E.38407
G1 X-67.004 Y-64.441 E.02495
G1 X-59.513 Y-56.95 E.40171
G1 X-59.842 Y-56.621 E.01764
G1 X-61.355 Y-58.134 E.08114
G1 X-61.355 Y-57.476 E.02495
G1 X-60.171 Y-56.292 E.0635
G1 X-60.5 Y-55.963 E.01764
G1 X-61.355 Y-56.818 E.04585
G1 X-61.355 Y-56.16 E.02495
G1 X-60.796 Y-55.601 E.02997
G1 X-60.796 Y-54.943 E.02495
G1 X-61.355 Y-55.502 E.02997
G1 X-61.355 Y-54.844 E.02495
G1 X-60.796 Y-54.285 E.02997
G1 X-60.796 Y-53.627 E.02495
G1 X-61.355 Y-54.186 E.02997
G1 X-61.355 Y-53.528 E.02495
G1 X-60.796 Y-52.969 E.02997
G1 X-60.796 Y-52.311 E.02495
G1 X-61.355 Y-52.869 E.02997
G1 X-61.355 Y-52.211 E.02495
G1 X-60.796 Y-51.653 E.02997
G1 X-60.796 Y-50.994 E.02495
G1 X-61.355 Y-51.553 E.02997
G1 X-61.355 Y-50.895 E.02495
G1 X-60.796 Y-50.336 E.02997
G1 X-60.796 Y-49.678 E.02495
G1 X-61.355 Y-50.237 E.02997
G1 X-61.355 Y-49.579 E.02495
G1 X-60.796 Y-49.02 E.02997
G1 X-60.796 Y-48.362 E.02495
G1 X-61.355 Y-48.921 E.02997
G1 X-61.355 Y-48.263 E.02495
G1 X-60.796 Y-47.704 E.02997
G1 X-60.796 Y-47.046 E.02495
G1 X-61.355 Y-47.605 E.02997
G1 X-61.355 Y-46.947 E.02495
G1 X-60.796 Y-46.388 E.02997
G1 X-60.796 Y-45.73 E.02495
G1 X-61.355 Y-46.289 E.02997
G1 X-61.355 Y-45.631 E.02495
G1 X-60.621 Y-44.896 E.03937
G1 X-61.279 Y-44.896 E.02495
G1 X-61.561 Y-45.178 E.01511
G1 E-.8 F2100
;WIPE_START
G1 F4800
G1 X-61.279 Y-44.896
G1 X-60.621 Y-44.896
G1 X-61.288 Y-45.563
;WIPE_END
G1 X-61.751 Y-53.182 Z.6 F30000
G1 X-62.097 Y-58.877 Z.6
G1 Z.2
G1 E.8 F2100
G1 F4800
G1 X-67.868 Y-64.647 E.30943
G1 X-67.631 Y-63.753 F30000
G1 F4800
G1 X-68.32 Y-64.441 E.03693
G1 X-68.978 Y-64.441 E.02495
G1 X-68.495 Y-63.958 E.02594
G2 X-68.99 Y-63.795 I.134 J1.248 E.01993
G1 X-69.636 Y-64.441 E.03463
G1 X-70.294 Y-64.441 E.02495
G1 X-69.402 Y-63.549 E.04785
G2 X-69.742 Y-63.231 I.578 J.959 E.01778
G1 X-70.952 Y-64.441 E.0649
G1 X-71.61 Y-64.441 E.02495
G1 X-70.179 Y-63.01 E.07676
G1 X-70.35 Y-62.888 E.00797
G1 X-70.372 Y-62.912 E.00125
G1 X-70.389 Y-62.897 E.00085
G1 X-70.399 Y-62.908 E.00057
G1 X-70.548 Y-62.774 E.00761
G1 X-70.728 Y-63.086 E.01364
G1 X-71.043 Y-63.436 E.01786
G1 X-71.424 Y-63.712 E.01786
G1 X-71.633 Y-63.805 E.00864
G1 X-72.269 Y-64.441 E.03411
G1 X-72.927 Y-64.441 E.02495
G1 X-72.487 Y-64.002 E.02356
G2 X-73.082 Y-63.939 I-.149 J1.431 E.02286
G1 X-73.585 Y-64.441 E.02694
G1 X-74.243 Y-64.441 E.02495
G1 X-73.564 Y-63.763 E.03639
G1 X-73.677 Y-63.712 E.00467
G1 X-73.964 Y-63.504 E.01345
G1 X-74.718 Y-64.258 E.04044
G1 X-74.805 Y-64.171 E.00468
G1 X-74.805 Y-63.687 E.01834
G1 X-74.147 Y-63.029 E.03528
G1 E-.8 F2100
;WIPE_START
G1 F4800
G1 X-74.805 Y-63.687
G1 X-74.805 Y-64.171
G1 X-74.718 Y-64.258
